usr/share/icons/Stylish/64/mimetypes/x-office-spreadsheet.svg

<?xml version="1.0" encoding="UTF-8" standalone="no"?>
<!-- Created with Inkscape (http://www.inkscape.org/) -->

<svg
   width="64"
   height="64"
   viewBox="0 0 64 64.000003"
   version="1.1"
   id="svg5"
   inkscape:version="1.2.2 (1:1.2.2+202305151914+b0a8486541)"
   sodipodi:docname="x-office-spreadsheet.svg"
   xmlns:inkscape="http://www.inkscape.org/namespaces/inkscape"
   xmlns:sodipodi="http://sodipodi.sourceforge.net/DTD/sodipodi-0.dtd"
   xmlns:xlink="http://www.w3.org/1999/xlink"
   xmlns="http://www.w3.org/2000/svg"
   xmlns:svg="http://www.w3.org/2000/svg">
  <sodipodi:namedview
     id="namedview7"
     pagecolor="#ffffff"
     bordercolor="#000000"
     borderopacity="0.25"
     inkscape:showpageshadow="2"
     inkscape:pageopacity="0.0"
     inkscape:pagecheckerboard="0"
     inkscape:deskcolor="#d1d1d1"
     inkscape:document-units="px"
     showgrid="false"
     inkscape:zoom="12.34375"
     inkscape:cx="31.959494"
     inkscape:cy="32"
     inkscape:window-width="1920"
     inkscape:window-height="1012"
     inkscape:window-x="0"
     inkscape:window-y="0"
     inkscape:window-maximized="1"
     inkscape:current-layer="svg5" />
  <defs
     id="defs2">
    <linearGradient
       inkscape:collect="always"
       id="linearGradient871">
      <stop
         style="stop-color:#4ba41c;stop-opacity:1;"
         offset="0"
         id="stop867" />
      <stop
         style="stop-color:#8ed64e;stop-opacity:1;"
         offset="1"
         id="stop869" />
    </linearGradient>
    <linearGradient
       inkscape:collect="always"
       xlink:href="#linearGradient871"
       id="linearGradient3065"
       x1="14"
       y1="4"
       x2="50"
       y2="60"
       gradientUnits="userSpaceOnUse" />
  </defs>
  <path
     id="rect234"
     style="opacity:0.2;stroke-linecap:round;stroke-linejoin:round"
     d="m 14,5 h 24 l 16,16 v 36 c 0,2.216 -1.784,4 -4,4 H 14 c -2.216,0 -4,-1.784 -4,-4 V 9 c 0,-2.216 1.784,-4 4,-4 z"
     sodipodi:nodetypes="sccssssss" />
  <path
     id="rect448"
     style="fill:url(#linearGradient3065);fill-opacity:1;stroke-linecap:round;stroke-linejoin:round"
     d="m 14,4 h 24 l 6,10 10,6 v 36 c 0,2.216 -1.784,4 -4,4 H 14 c -2.216,0 -4,-1.784 -4,-4 V 8 c 0,-2.216 1.784,-4 4,-4 z"
     sodipodi:nodetypes="scccssssss" />
  <path
     id="rect1373"
     style="fill:#ffffff;stroke-width:2.16024;stroke-linecap:round;stroke-linejoin:round"
     d="m 21,30 c -1.104569,0 -2,0.895431 -2,2 v 14 c 0,1.104569 0.895431,2 2,2 h 22 c 1.104569,0 2,-0.895431 2,-2 V 32 c 0,-1.104569 -0.895431,-2 -2,-2 z m 0,2 h 10 v 6 H 21 Z m 12,0 h 10 v 6 H 33 Z m -12,8 h 10 v 6 H 21 Z m 12,0 h 10 v 6 H 33 Z"
     sodipodi:nodetypes="ssssssssscccccccccccccccccccc" />
  <path
     d="M 54,21 H 42 c -2.216,0 -4,-1.784 -4,-4 V 4 l 16,16 z"
     style="opacity:0.2;fill:#000000;stroke-linecap:round;stroke-linejoin:round"
     id="path611"
     sodipodi:nodetypes="cssccc" />
  <path
     id="rect600"
     style="fill:#8fde85;fill-opacity:1;stroke-linecap:round;stroke-linejoin:round"
     d="M 54,20 H 42 c -2.216,0 -4,-1.784 -4,-4 V 4 l 8,8 z"
     sodipodi:nodetypes="cssccc" />
</svg>

<?xml version="1.0" encoding="UTF-8" standalone="no"?>
<!-- Created with Inkscape (http://www.inkscape.org/) -->

<svg
   width="64"
   height="64"
   viewBox="0 0 64 64.000003"
   version="1.1"
   id="svg5"
   inkscape:version="1.2.1 (9c6d41e410, 2022-07-14)"
   sodipodi:docname="x-office-spreadsheet.svg"
   xmlns:inkscape="http://www.inkscape.org/namespaces/inkscape"
   xmlns:sodipodi="http://sodipodi.sourceforge.net/DTD/sodipodi-0.dtd"
   xmlns="http://www.w3.org/2000/svg"
   xmlns:svg="http://www.w3.org/2000/svg">
  <sodipodi:namedview
     id="namedview7"
     pagecolor="#ffffff"
     bordercolor="#000000"
     borderopacity="0.25"
     inkscape:showpageshadow="2"
     inkscape:pageopacity="0.0"
     inkscape:pagecheckerboard="0"
     inkscape:deskcolor="#d1d1d1"
     inkscape:document-units="px"
     showgrid="false"
     inkscape:zoom="14.350877"
     inkscape:cx="31.984108"
     inkscape:cy="32.471883"
     inkscape:window-width="1920"
     inkscape:window-height="1004"
     inkscape:window-x="0"
     inkscape:window-y="0"
     inkscape:window-maximized="1"
     inkscape:current-layer="svg5" />
  <defs
     id="defs2" />
  <path
     id="rect234"
     style="opacity:0.2;stroke-linecap:round;stroke-linejoin:round"
     d="m 14,5 h 24 l 16,16 v 36 c 0,2.216 -1.784,4 -4,4 H 14 c -2.216,0 -4,-1.784 -4,-4 V 9 c 0,-2.216 1.784,-4 4,-4 z"
     sodipodi:nodetypes="sccssssss" />
  <path
     id="rect448"
     style="fill:#5f9c56;fill-opacity:1;stroke-linecap:round;stroke-linejoin:round"
     d="m 14,4 h 24 l 6,10 10,6 v 36 c 0,2.216 -1.784,4 -4,4 H 14 c -2.216,0 -4,-1.784 -4,-4 V 8 c 0,-2.216 1.784,-4 4,-4 z"
     sodipodi:nodetypes="scccssssss" />
  <path
     d="M 54,21 H 42 c -2.216,0 -4,-1.784 -4,-4 V 4 l 16,16 z"
     style="opacity:0.2;fill:#000000;stroke-linecap:round;stroke-linejoin:round"
     id="path611"
     sodipodi:nodetypes="cssccc" />
  <path
     id="rect600"
     style="fill:#a0c89b;fill-opacity:1;stroke-linecap:round;stroke-linejoin:round"
     d="M 54,20 H 42 c -2.216,0 -4,-1.784 -4,-4 V 4 l 8,8 z"
     sodipodi:nodetypes="cssccc" />
  <path
     id="rect5022"
     style="fill:#ffffff;fill-opacity:1;stroke-width:1.16217;stroke-linecap:round;stroke-linejoin:round"
     d="M 19 30 L 19 48 L 45 48 L 45 30 L 19 30 z M 21 32 L 31 32 L 31 38 L 21 38 L 21 32 z M 33 32 L 43 32 L 43 38 L 33 38 L 33 32 z M 21 40 L 31 40 L 31 46 L 21 46 L 21 40 z M 33 40 L 43 40 L 43 46 L 33 46 L 33 40 z " />
</svg>
